X: 106
T: Maggie in the Woods
M: 2/4
L: 1/8
R: polka
K:Gmaj
B/A/ |"G"GD G>A |"Em" Be eg/e/ |"G" dB B/A/G/A/ |"D" BA AB/A/ |
"G"GD G>A |"Em" Be eg/e/ |"G" dB "D"AB/A/ |"G" G2 G :|
|: B/d/ |"G"gf ed |"C" ef ge |"G" dB B/A/G/A/ | "D"BA AB/d/|
[1"G"gf ed |"C" ef ge |"G" dB "D"AB/A/ |"G" G2 G :|
[2"G"GD G>A |"Em" Be eg/e/ |"G" dB "D"AB/A/ |"G" G2 G |]


